**kern	**kern	**kern	**kern	**kern
*MM60	*MM60	*MM60	*MM60	*MM60
*k[]	*k[]	*k[]	*k[]	*k[]
*M4/4	*M4/4	*M4/4	*M4/4	*M4/4
*tb32	*tb32	*tb32	*tb32	*tb32
=1	=1	=1	=1	=1
1r	1r	8r	1r	1r
.	.	8d	.	.
.	.	8c#	.	.
.	.	8d	.	.
.	.	4A	.	.
.	.	[4g	.	.
=2	=2	=2	=2	=2
1r	1r	8g]	1r	1r
.	.	16f	.	.
.	.	16e	.	.
.	.	8f	.	.
.	.	8d	.	.
.	.	4.e	.	.
.	.	16d	.	.
.	.	16e	.	.
=3	=3	=3	=3	=3
1r	8r	8d	1r	1r
.	8a	16e	.	.
.	.	16f	.	.
.	8g#	8e	.	.
.	8a	8d	.	.
.	4e	8c	.	.
.	.	16B	.	.
.	.	16A	.	.
.	[4dd	8G#	.	.
.	.	8B	.	.
=4	=4	=4	=4	=4
1r	8dd]	8e	1r	1r
.	16cc	8g#	.	.
.	16b	.	.	.
.	8cc	8a	.	.
.	16b	8f	.	.
.	16a	.	.	.
.	4.b	16d	.	.
.	.	16e	.	.
.	.	16c	.	.
.	.	16d	.	.
.	.	16B	.	.
.	.	16e	.	.
.	8b	16d	.	.
.	.	16e	.	.
=5	=5	=5	=5	=5
1r	[2a	8c	1r	1r
.	.	16B	.	.
.	.	16A	.	.
.	.	8d	.	.
.	.	8c	.	.
.	8a]	8B	.	.
.	16g	8A	.	.
.	16f	.	.	.
.	8g	8B	.	.
.	16f	8c#	.	.
.	16e	.	.	.
=6	=6	=6	=6	=6
8r	8f	4d	1r	1r
8dd	16g	.	.	.
.	16a	.	.	.
8cc#	8g	8e	.	.
8dd	8a	8f	.	.
4a	4.e	16c#	.	.
.	.	16d	.	.
.	.	16c#	.	.
.	.	16B	.	.
[4gg	.	[4A	.	.
.	8e	.	.	.
=7	=7	=7	=7	=7
8gg]	4.a	8A]	1r	1r
16ff	.	8c#	.	.
16ee	.	.	.	.
8ff	.	2d	.	.
16ee	8b-	.	.	.
16dd	.	.	.	.
4.ee	16g	.	.	.
.	16a	.	.	.
.	16f	.	.	.
.	16g	.	.	.
.	16e	4c#	.	.
.	16a	.	.	.
[8ee	16g	.	.	.
.	16a	.	.	.
=8	=8	=8	=8	=8
8ee]	8f	4.d	1r	1r
16dd	8g	.	.	.
16cc	.	.	.	.
8dd	8a	.	.	.
16ee	8g#	8B	.	.
16ff	.	.	.	.
8ee	4.a	8c	.	.
16dd	.	16f	.	.
16cc	.	16e	.	.
16b	.	8d	.	.
16cc	.	.	.	.
16dd	8g#	[8e	.	.
16ee	.	.	.	.
=9	=9	=9	=9	=9
8cc	4a	8e]	8r	1r
16dd	.	16f	8A	.
16ee	.	16g	.	.
8dd	8b	8f	8G#	.
8cc	8a	[8e	8A	.
16b	8g#	8e]	4E	.
16cc	.	.	.	.
16dd	[8b	[8g#	.	.
16ee	.	.	.	.
4ff	4b_	8g#]	[4d	.
.	.	16a	.	.
.	.	16b	.	.
=10	=10	=10	=10	=10
4.ee	4b]	8e	8d]	1r
.	.	16f#	16c	.
.	.	16g	16B	.
.	2a	8r	8c	.
8ee	.	8c	8A	.
16dd	.	8f	4.B	.
16ee	.	.	.	.
16cc	.	8d	.	.
16dd	.	.	.	.
16b	[4g	[4e	.	.
16ee	.	.	.	.
16dd	.	.	8B	.
16ee	.	.	.	.
=11	=11	=11	=11	=11
[2cc	16g]	2e]	8A	1r
.	16b	.	.	.
.	16a	.	8B	.
.	16g	.	.	.
.	16a	.	8c	.
.	16g	.	.	.
.	16f	.	8A	.
.	16e	.	.	.
16cc]	[2f	[2d	8d	.
16ee	.	.	.	.
16dd	.	.	8F	.
16cc	.	.	.	.
16dd	.	.	8D	.
16cc	.	.	.	.
16b	.	.	8F	.
16a	.	.	.	.
=12	=12	=12	=12	=12
[2b	16f]	2d]	8G	1r
.	16a	.	.	.
.	16g	.	8A	.
.	16f	.	.	.
.	16g	.	8B	.
.	16f	.	.	.
.	16e	.	8G	.
.	16d	.	.	.
16b]	[2e	[2c	8c	.
16dd	.	.	.	.
16cc	.	.	8E	.
16b	.	.	.	.
16cc	.	.	8C	.
16b	.	.	.	.
16a	.	.	8E	.
16g	.	.	.	.
=13	=13	=13	=13	=13
16a	8e]	8c]	4.F	1r
16g	.	.	.	.
16f	8A	8c#	.	.
16e	.	.	.	.
16d	[4d	8d	.	.
16a	.	.	.	.
16b-	.	8A	8F	.
16a	.	.	.	.
16g	4d]	4B	4E	.
16a	.	.	.	.
16g	.	.	.	.
16f	.	.	.	.
8e	4A	8c	[4A	.
16f	.	16d	.	.
16g	.	16e	.	.
=14	=14	=14	=14	=14
16f	8r	4d	2A_	8r
16a	.	.	.	.
16dd	[8a	.	.	8D
16ff	.	.	.	.
8ee	16a]	8e	.	8C#
.	8a	.	.	.
[8dd	.	[8f	.	8D
.	[16a	.	.	.
8dd]	2a_	8f]	2A_	4AA
16cc#	.	16e	.	.
16b	.	16d	.	.
16cc#	.	16e	.	[4G
16a	.	16c#	.	.
16cc#	.	[8e	.	.
16ee	.	.	.	.
=15	=15	=15	=15	=15
4.aa	8a]	8e]	4.A]	8G]
.	8a	16d	.	16F
.	.	16c#	.	16E
.	8dd	2d	.	8F
8aa	8cc	.	8F	8D
16gg	4b	.	4G	4.E
16aa	.	.	.	.
16ff	.	.	.	.
16gg	.	.	.	.
16ee	[4a	4c	[4A	.
16aa	.	.	.	.
16gg	.	.	.	8E
16aa	.	.	.	.
=16	=16	=16	=16	=16
16ff	8a]	2d	4A]	8D
16ee	.	.	.	.
16dd	[8a	.	.	8F
16cc	.	.	.	.
8b	16a]	.	2G	8G
.	16a	.	.	.
8dd	16g	.	.	8GG
.	16f	.	.	.
16ee	8e	2c	.	8C
16dd	.	.	.	.
16cc	[8g	.	.	8E
16b	.	.	.	.
8a	16g]	.	[4F	8F
.	16g	.	.	.
8cc	16f	.	.	8FF
.	16e	.	.	.
=17	=17	=17	=17	=17
16dd	8d	2B	4F]	8BB
16cc	.	.	.	.
16b	[8f	.	.	8D
16a	.	.	.	.
16g#	16f]	.	[4E	8E
16b	16f	.	.	.
16a	16e	.	.	8EE
16g#	16d	.	.	.
8a	8c	[4A	8E]	8AA
8b	8d	.	8F	8D
8cc 8e	16c	8A]	4E	8E
.	16d	.	.	.
8b 8d	8e	8G#	.	8EE
=18	=18	=18	=18	=18
16a	8e	8c	4A	4AA
16b	.	.	.	.
16cc	8r	8a	.	.
16dd	.	.	.	.
16ee	4r	8g#	4r	8r
16dd	.	.	.	.
16cc	.	8a	.	8A
16dd	.	.	.	.
8b	2r	4e	2r	8G#
8cc	.	.	.	8A
16g#	.	[4dd	.	8E
16ee	.	.	.	.
16ff#	.	.	.	[8B
16gg#	.	.	.	.
=19	=19	=19	=19	=19
8aa	1r	8dd]	1r	8B]
8ee	.	16cc	.	16A
.	.	16b	.	16G#
2aa	.	8cc	.	8A
.	.	16b	.	8F
.	.	16a	.	.
.	.	4.b	.	16D
.	.	.	.	16E
.	.	.	.	16C
.	.	.	.	16D
4gg#	.	.	.	16BB
.	.	.	.	16E
.	.	8b	.	16D
.	.	.	.	16E
=20	=20	=20	=20	=20
8aa	1r	8a	2r	8AA
16aa	.	8cc	.	8AA
16bb	.	.	.	.
16aa	.	8dd	.	8BB
16gg	.	.	.	.
16ff	.	8ee	.	8C
16ee	.	.	.	.
8ff	.	8a	8r	4D
8ff#	.	8a	16d	.
.	.	.	16e-	.
8gg	.	8b-	16d	4r
.	.	.	16c	.
8aa	.	8cc	16B-	.
.	.	.	16A	.
=21	=21	=21	=21	=21
8bb-	1r	8dd	4G	8r
8gg	.	8b	.	8G
16gg	.	8cc	4r	8A
16aa	.	.	.	.
16gg	.	8dd	.	8B
16ff	.	.	.	.
8ee	.	8g	8r	4c
8ee	.	8g	16c	.
.	.	.	16d	.
8ff	.	8a	16c	4r
.	.	.	16B-	.
8gg	.	8b	16A	.
.	.	.	16G	.
=22	=22	=22	=22	=22
8aa	1r	8cc	4F	8r
8ff	.	8a	.	8F
16ff	.	8b-	4r	8G
16gg	.	.	.	.
16ff	.	8cc	.	8A
16ee	.	.	.	.
16dd	.	8f	2r	4B-
16ee	.	.	.	.
16ff	.	[8g	.	.
16gg	.	.	.	.
16cc	.	8g]	.	4A
16dd	.	.	.	.
16ee	.	[8f	.	.
16ff	.	.	.	.
=23	=23	=23	=23	=23
16b-	2r	4f]	1r	4G
16cc	.	.	.	.
16a	.	.	.	.
16b-	.	.	.	.
16g	.	4e	.	4C
16cc	.	.	.	.
16b-	.	.	.	.
16cc	.	.	.	.
8a	8r	4f	.	4F
8ff	16b-	.	.	.
.	16cc	.	.	.
8ee	8b-	8g	.	4r
8ff	8cc	8a	.	.
=24	=24	=24	=24	=24
4cc	[4g	16e	1r	1r
.	.	16f	.	.
.	.	16e	.	.
.	.	16d	.	.
[4bb-	8g]	[4c	.	.
.	8g	.	.	.
8bb-]	2cc	8c]	.	.
16aa	.	8c	.	.
16gg	.	.	.	.
8aa	.	[4f	.	.
8ff	.	.	.	.
=25	=25	=25	=25	=25
4.gg	16b-	4f]	1r	2r
.	16cc	.	.	.
.	16a	.	.	.
.	16b-	.	.	.
.	16g	4e	.	.
.	16cc	.	.	.
8gg	16b-	.	.	.
.	16cc	.	.	.
16ff	16a	4f	.	8r
16gg	16b-	.	.	.
16aa	16cc	.	.	8F
16bb-	16dd	.	.	.
16ccc	4cc	8g	.	8E
16bb-	.	.	.	.
16aa	.	8f	.	8F
16bb-	.	.	.	.
=26	=26	=26	=26	=26
4.gg	16e	1r	1r	4C
.	16f	.	.	.
.	16e	.	.	.
.	16d	.	.	.
.	4.c	.	.	[4B-
8gg	.	.	.	.
[4ccc	.	.	.	8B-]
.	8c	.	.	16A
.	.	.	.	16G
8ccc]	[4f	.	.	8A
16bb-	.	.	.	8F
16aa	.	.	.	.
=27	=27	=27	=27	=27
16bb-	4f]	1r	1r	4.G
16ccc	.	.	.	.
16aa	.	.	.	.
16bb-	.	.	.	.
16gg	4e	.	.	.
16ccc	.	.	.	.
16bb-	.	.	.	8G
16ccc	.	.	.	.
16aa	16f	.	.	4F
16gg	16b-	.	.	.
16ff	16a	.	.	.
16ee	16g	.	.	.
16ff	8a	.	.	8r
16gg	.	.	.	.
16aa	[8dd	.	.	8F
16bb-	.	.	.	.
=28	=28	=28	=28	=28
16gg	16dd]	1r	1r	8E
16ff	16a	.	.	.
16ee	16g	.	.	8EE
16dd	16f	.	.	.
16ee	8g	.	.	8r
16ff	.	.	.	.
16gg	[8cc	.	.	8E
16aa	.	.	.	.
16ff	16cc]	.	.	8D
16ee	16g	.	.	.
16dd	16f	.	.	8DD
16cc	16e	.	.	.
16dd	16f	.	.	8r
16ee	16g	.	.	.
16ff	16a	.	.	8D
16gg	16b	.	.	.
=29	=29	=29	=29	=29
8ee	8cc	8r	1r	4C
16ff	16dd	8c	.	.
16gg	16ee	.	.	.
8ff	8dd	8B	.	8r
8ee	8cc	8c	.	8C
4.dd	16b	4G	.	8G
.	16cc	.	.	.
.	16b	.	.	8A
.	16a	.	.	.
.	8g	[4f	.	8B
[8dd	[8g	.	.	8G
=30	=30	=30	=30	=30
8dd]	4g]	8f]	1r	8c
16cc	.	16e	.	8B
16b	.	16d	.	.
8cc	8g	8e	.	8A
8ee	8cc	8c	.	8G
4.ff	4a	4.d	.	16F
.	.	.	.	16G
.	.	.	.	16E
.	.	.	.	16F
.	4b	.	.	16D
.	.	.	.	16G
8ff	.	8d	.	16F
.	.	.	.	16G
=31	=31	=31	=31	=31
8ee	[4g	8c	1r	16C
.	.	.	.	16D
8dd	.	8d	.	16BB
.	.	.	.	16C
16cc	8g]	8e	.	16AA
16b	.	.	.	16D
16a	8a	8f#	.	16C
16cc	.	.	.	16D
8b	8g	[4d	.	8GG
16cc	8f#	.	.	8D
16a	.	.	.	.
16b	4g	16d]	.	8G
16dd	.	16f	.	.
16g	.	16e	.	8GG
16b	.	16d	.	.
=32	=32	=32	=32	=32
16cc	1r	8c	1r	8AA
16ee	.	.	.	.
16dd	.	[8f	.	8D
16a	.	.	.	.
[4b	.	16f]	.	8G
.	.	16a	.	.
.	.	16g	.	8GG
.	.	16d	.	.
16b]	.	[4e	.	8C
16dd	.	.	.	.
16cc	.	.	.	8E
16g	.	.	.	.
[4a	.	16e]	.	8F
.	.	16g	.	.
.	.	16f	.	8FF
.	.	16c	.	.
=33	=33	=33	=33	=33
16a]	1r	[4d	1r	8BB
16cc	.	.	.	.
16b	.	.	.	8D
16f#	.	.	.	.
4g#	.	16d]	.	8E
.	.	16f	.	.
.	.	16e	.	8EE
.	.	16B	.	.
8a	.	8c	.	4AA
16c	.	8A	.	.
16d	.	.	.	.
8e	.	8G#	.	4r
8c	.	8A	.	.
=34	=34	=34	=34	=34
8B	8G#	8E	1r	1r
8a	8r	16c	.	.
.	.	16e	.	.
8g#	4r	16B	.	.
.	.	16e	.	.
8a	.	16A	.	.
.	.	16e	.	.
4e	2r	16G#	.	.
.	.	16B	.	.
.	.	16F#	.	.
.	.	16B	.	.
[4dd	.	16E	.	.
.	.	16G#	.	.
.	.	16B	.	.
.	.	16e	.	.
=35	=35	=35	=35	=35
8dd]	1r	16g#	1r	1r
.	.	16b	.	.
16cc	.	16e	.	.
16b	.	16g#	.	.
16cc	.	16a	.	.
16b	.	16g	.	.
16dd	.	16f	.	.
16cc	.	16e	.	.
4.b	.	16d	.	.
.	.	16e	.	.
.	.	16c	.	.
.	.	16d	.	.
.	.	16B	.	.
.	.	16e	.	.
8b	.	16d	.	.
.	.	16e	.	.
=36	=36	=36	=36	=36
16a	1r	16c	1r	8r
16b	.	16d	.	.
16cc	.	[8e	.	8AA
16ee	.	.	.	.
16b	.	16e]	.	8GG#
16ee	.	16d	.	.
16a	.	8c	.	8AA
16ee	.	.	.	.
16g#	.	8B	.	4EE
16b	.	.	.	.
16f#	.	8A	.	.
16b	.	.	.	.
16e	.	16G#	.	[4D
16g#	.	16B	.	.
16b	.	16e	.	.
16ee	.	16g#	.	.
=37	=37	=37	=37	=37
16gg#	1r	8b	1r	8D]
16ee	.	.	.	.
16ff#	.	8e	.	16C
16gg#	.	.	.	16BB
16aa	.	[4a	.	8C
16ee	.	.	.	.
16ff	.	.	.	8AA
16ee	.	.	.	.
16dd	.	16a]	.	4BB
16ee	.	16f#	.	.
16dd	.	16g#	.	.
16cc	.	16a	.	.
16b	.	16g#	.	4E
16cc	.	16a	.	.
16dd	.	16b	.	.
16b	.	16g#	.	.
=38	=38	=38	=38	=38
16cc	1r	16e	1r	8A
16a	.	16c	.	.
16b	.	16d	.	8G
16cc#	.	16e	.	.
16dd	.	16f	.	8F
16cc#	.	16e	.	.
16ee	.	16g	.	8E
16dd	.	16f	.	.
8ff	.	8a	.	8D
16gg	.	8b-	.	8G
16aa	.	.	.	.
8ff	.	8a	.	8A
8ee	.	8g	.	8AA
=39	=39	=39	=39	=39
8dd	1r	8f	1r	4D
16ff	.	8dd	.	.
16aa	.	.	.	.
16ee	.	8cc#	.	4r
16aa	.	.	.	.
16ff	.	8dd	.	.
16aa	.	.	.	.
8cc#	.	16a	.	8r
.	.	16g	.	.
8dd	.	16f	.	8AA
.	.	16a	.	.
8cc#	.	16e	.	8AA
.	.	16a	.	.
8dd	.	16f	.	8AA
.	.	16a	.	.
=40	=40	=40	=40	=40
16a	1r	8c#	1r	4AA
16g	.	.	.	.
16f	.	8d	.	.
16a	.	.	.	.
16e	.	8c#	.	4r
16a	.	.	.	.
16f	.	8d	.	.
16a	.	.	.	.
8c#	.	16A	.	8r
.	.	16G	.	.
8d	.	16F	.	8AA
.	.	16A	.	.
8c#	.	16E	.	8AA
.	.	16A	.	.
8d	.	16F	.	8AA
.	.	16A	.	.
=41	=41	=41	=41	=41
8c#	2r	8E	1r	8AA
16a	.	8c#	.	8AA
16b-	.	.	.	.
16a	.	8d	.	8BB
16g	.	.	.	.
16f	.	8e	.	8C#
16e	.	.	.	.
8f	8A	8r	.	4D
8f#	8A	16D	.	.
.	.	16E	.	.
8g	8B-	16D	.	4r
.	.	16C	.	.
8a	8c	16BB-	.	.
.	.	16AA	.	.
=42	=42	=42	=42	=42
8b-	8d	4GG	1r	8r
16g	8B	.	.	8GG
16a	.	.	.	.
16g	8c	4r	.	8AA
16a	.	.	.	.
16g	8d	.	.	8BB
16f	.	.	.	.
8e	8G	8r	.	4C
8e	8G	16C	.	.
.	.	16D	.	.
8f	8A	16C	.	4r
.	.	16BB-	.	.
8g	8B	16AA	.	.
.	.	16GG	.	.
=43	=43	=43	=43	=43
8a	8c	4FF	1r	8r
16a	8f	.	.	8F
16b-	.	.	.	.
8cc	8g	8c	.	8E
8a	8f	8c	.	8F
8g	8e	8c	.	4C
8ff	8r	16a	.	.
.	.	16cc	.	.
8ee	4r	16g	.	4r
.	.	16cc	.	.
8ff	.	16a	.	.
.	.	16cc	.	.
=44	=44	=44	=44	=44
16cc	1r	8e	1r	8r
16b-	.	.	.	.
16a	.	8f	.	8C
16cc	.	.	.	.
16g	.	8e	.	8C
16cc	.	.	.	.
16a	.	8f	.	8C
16cc	.	.	.	.
8e	.	16c	.	4C
.	.	16B-	.	.
8f	.	16A	.	.
.	.	16c	.	.
8e	.	16G	.	4r
.	.	16c	.	.
8f	.	16A	.	.
.	.	16c	.	.
=45	=45	=45	=45	=45
8c	2r	8E	1r	8r
16cc	.	8e	.	8C
16dd	.	.	.	.
16cc	.	8f	.	8D
16b-	.	.	.	.
16a	.	8g	.	8E
16g	.	.	.	.
8a	8c	8r	.	4F
8a	8c	16F	.	.
.	.	16G	.	.
8b	8d	16F	.	4r
.	.	16E-	.	.
8cc	8e	16D	.	.
.	.	16C	.	.
=46	=46	=46	=46	=46
8dd	8f	4BB-	1r	8r
16dd	8b-	.	.	8B-
16ee-	.	.	.	.
8ff	8cc	8f	.	8A
8dd	8b-	8f	.	8B-
8cc	8a	8f	.	4F
8bb-	8r	16dd	.	.
.	.	16ff	.	.
8aa	4r	16cc	.	4r
.	.	16ff	.	.
8bb-	.	16dd	.	.
.	.	16ff	.	.
=47	=47	=47	=47	=47
16ff	1r	8a	1r	8r
16ee-	.	.	.	.
16dd	.	8b-	.	8F
16ff	.	.	.	.
16cc	.	8a	.	8F
16ff	.	.	.	.
16dd	.	8b-	.	8F
16ff	.	.	.	.
8a	.	16f	.	4F
.	.	16e-	.	.
8b-	.	16d	.	.
.	.	16f	.	.
8a	.	16c	.	4r
.	.	16f	.	.
8b-	.	16d	.	.
.	.	16f	.	.
=48	=48	=48	=48	=48
8f	1r	8A	1r	8r
16ff	.	8a	.	16F
16gg	.	.	.	16A
16ff	.	8b-	.	16G
16ee-	.	.	.	16B-
16dd	.	8a	.	16A
16cc	.	.	.	16c
8dd	.	8f	.	8B-
8ee-	.	8g	.	8E-
8dd	.	8f	.	8F
8cc	.	8e-	.	8FF
=49	=49	=49	=49	=49
8b-	1r	8d	1r	4BB-
8dd	.	8f	.	.
16ee	.	16g	.	8r
16ff	.	16a	.	.
16dd	.	16f	.	8GG
16ee	.	16g	.	.
8cc#	.	8e	.	8AA
[8dd	.	[8f	.	8D
8dd]	.	8f]	.	8A
8cc#	.	8e	.	8AA
=50	=50	=50	=50	=50
8dd	2r	8f	8r	4D
16dd	.	8f#	8d	.
16ee-	.	.	.	.
16dd	.	8g	8e	4r
16cc	.	.	.	.
16b-	.	8a	8f#	.
16a	.	.	.	.
8b-	8g	2r	8r	8r
8b	8d	.	16G	16GG
.	.	.	16A	16BB
8cc	8e-	.	16G	16AA
.	.	.	16F	16C
8dd	8f	.	16E-	16BB
.	.	.	16D	16D
=51	=51	=51	=51	=51
8ee-	8g	8r	4C	4C
16cc	8e	8c	.	.
16dd	.	.	.	.
16cc	8f	8d	4r	4r
16b-	.	.	.	.
16a	8g	8e	.	.
16g	.	.	.	.
8a	8f	2r	8r	8r
8a	8c	.	16F	16FF
.	.	.	16G	16AA
8b	8d	.	16F	16GG
.	.	.	16E-	16BB-
8cc	8e-	.	16D	16AA
.	.	.	16C	16C
=52	=52	=52	=52	=52
8dd	8f	8r	8BB-	4BB-
16b-	8d	8B-	8r	.
16cc	.	.	.	.
16b-	8e-	8c	4r	4r
16a	.	.	.	.
16g	8f	8d	.	.
16f	.	.	.	.
8g	8e-	2r	8r	8r
8g	8B-	.	16E-	16EE-
.	.	.	16F	16GG
8a	8c	.	16E-	16FF
.	.	.	16D	16AA
8b-	8d	.	16C	16GG
.	.	.	16BB-	16BB-
=53	=53	=53	=53	=53
8cc	8e-	2r	4AA	4AA
8a	8c	.	.	.
16a	16c	.	4r	4r
16g	16B	.	.	.
16f#	16A	.	.	.
16e	16G	.	.	.
8f#	8A	8r	4r	8r
8dd	8r	8f#	.	16D
.	.	.	.	16F#
16dd	4r	8g	8d	16E
16cc	.	.	.	16G
16b-	.	8a	8d	16F#
16a	.	.	.	16A
=54	=54	=54	=54	=54
8b-	1r	4g	8d	8G
8cc	.	.	8e-	8C
8b-	.	8g	8d	8D
8a	.	8f#	8d	8DD
8g	.	8d	8B-	4GG
8gg	.	16b-	8r	.
.	.	16dd	.	.
8ff#	.	16a	4r	4r
.	.	16dd	.	.
8gg	.	16b-	.	.
.	.	16dd	.	.
=55	=55	=55	=55	=55
16dd	1r	8f#	1r	8r
16cc	.	.	.	.
16b-	.	8g	.	8D
16cc	.	.	.	.
16a	.	8f#	.	8D
16dd	.	.	.	.
16b-	.	8g	.	8D
16dd	.	.	.	.
8a	.	8f#	.	8D
16dd	.	8f#	.	8D
16ee	.	.	.	.
16dd	.	8g	.	8E
16cc	.	.	.	.
16b-	.	8a	.	8F#
16a	.	.	.	.
=56	=56	=56	=56	=56
8b-	1r	8d	1r	8G
8cc	.	8e-	.	8C
8b-	.	8d	.	8D
8a	.	8c	.	8DD
8g	.	8B-	.	4GG
16ee	.	16c#	.	.
16ff	.	16d	.	.
8gg	.	8e	.	8r
16cc#	.	16e	.	[8G
16dd	.	16f	.	.
=57	=57	=57	=57	=57
8ee	1r	8g	1r	4G]
16a	.	16c#	.	.
16b	.	16d	.	.
8cc#	.	8e	.	8r
8dd	.	8a	.	8F
4.dd	.	16g	.	4E
.	.	16a	.	.
.	.	16g	.	.
.	.	16f	.	.
.	.	16e	.	4A
.	.	16a	.	.
8cc#	.	16g	.	.
.	.	16a	.	.
=58	=58	=58	=58	=58
8dd	1r	8f	1r	4D
16ff	.	8dd	.	.
16aa	.	.	.	.
16ee	.	8cc#	.	4r
16aa	.	.	.	.
16ff	.	8dd	.	.
16aa	.	.	.	.
8cc#	.	16a	.	8r
.	.	16g	.	.
8dd	.	16f	.	8D
.	.	16a	.	.
8ee	.	16e	.	8C#
.	.	16a	.	.
8ff	.	16d	.	8D
.	.	16a	.	.
=59	=59	=59	=59	=59
8ee	1r	16c#	1r	4AA
.	.	16e	.	.
8dd	.	16B	.	.
.	.	16e	.	.
16cc#	.	[4A	.	[4G
16a	.	.	.	.
16b	.	.	.	.
16cc#	.	.	.	.
4.dd	.	16A]	.	8G]
.	.	16A	.	.
.	.	16B	.	16F
.	.	16c	.	16E
.	.	[4d	.	8F
8aa	.	.	.	8D
=60	=60	=60	=60	=60
16gg	1r	16d]	1r	4E
16aa	.	16B	.	.
16gg	.	16c#	.	.
16ff	.	16d	.	.
16ee	.	16c#	.	4A
16gg	.	16e	.	.
16ff	.	16d	.	.
16ee	.	16c#	.	.
16ff	.	16d	.	4D
16dd	.	16a	.	.
16gg	.	16f	.	.
16aa	.	16d	.	.
16bb-	.	16G	.	8r
16aa	.	16f	.	.
16gg	.	16e	.	8G
16ff	.	16d	.	.
=61	=61	=61	=61	=61
16ee	1r	16c	1r	4C
16cc	.	16g	.	.
16ee	.	16e	.	.
16gg	.	16c	.	.
16aa	.	16F	.	8r
16gg	.	16e	.	.
16ff	.	16d	.	8F
16ee	.	16c	.	.
16dd	.	16B-	.	4BB-
16b-	.	16f	.	.
16dd	.	16d	.	.
16ff	.	16B-	.	.
16gg	.	16E	.	8r
16ff	.	16d	.	.
16ee	.	16c#	.	8E
16dd	.	16B	.	.
=62	=62	=62	=62	=62
16cc#	4r	16e	4A	8AA
16ee	.	16g	.	.
16dd	.	16f	.	8GG
16cc#	.	16e	.	.
16aa	8r	16A	4r	8FF
16gg	.	16e	.	.
16ff	8b	16d	.	8GG#
16ee	.	16c#	.	.
4ff	4.a	4d	2r	4AA
4ee	.	4c#	.	4AA
.	8g	.	.	.
=63	=63	=63	=63	=63
1dd	1f	1A	1D	1DD
==	==	==	==	==
*-	*-	*-	*-	*-
